Costumes/h-block.svg

<?xml version="1.0" encoding="UTF-8" standalone="no"?>
<svg
   version="1.1"
   width="55.227573"
   height="79.683578"
   id="svg5"
   sodipodi:docname="h-block.svg"
   xmlns:inkscape="http://www.inkscape.org/namespaces/inkscape"
   xmlns:sodipodi="http://sodipodi.sourceforge.net/DTD/sodipodi-0.dtd"
   xmlns="http://www.w3.org/2000/svg"
   xmlns:svg="http://www.w3.org/2000/svg">
  <defs
     id="defs9" />
  <sodipodi:namedview
     id="namedview7"
     pagecolor="#ffffff"
     bordercolor="#000000"
     borderopacity="0.25"
     inkscape:showpageshadow="2"
     inkscape:pageopacity="0.0"
     inkscape:pagecheckerboard="0"
     inkscape:deskcolor="#d1d1d1" />
  <!-- Exported by Scratch - http://scratch.mit.edu/ -->
  <g
     id="ID0.7614146037958562"
     transform="translate(-0.80813647,-0.15937755)">
    <path
       id="ID0.7904601190239191"
       d="m 291,354 c 3.333,0 6.667,0 10,0 -0.23,14.021 -0.699,23.146 1,36 2.333,0 4.667,0 7,0 0,-11.333 -1.976,-20.691 -3,-31 2.319,-0.319 3.839,0.161 5,1 1.388,-1.279 0.612,-4.721 2,-6 4.667,0 9.333,0 14,0 1.187,21.726 -0.812,51.252 8,71 0,1 0,2 0,3 -3.146,-0.479 -3.909,1.424 -6,2 0.319,2.348 1.58,3.754 1,7 -1.419,-0.086 -2.832,-0.165 -3,1 -0.667,0 -1.333,0 -2,0 -1.078,-1.655 -8.922,-1.655 -10,0 -0.667,0 -1.333,0 -2,0 -1.566,-13.637 3.258,-27.541 -9,-30 -4.701,4.377 0.422,14.425 1,20 -1.01,1.656 -4.247,1.086 -6,2 -0.409,2.409 1.826,2.174 1,5 -4.938,1.396 -14.377,4.67 -18,1 l -2.75,-60 c -1.295,-9.063 -1.305,1.436 -2.25,-11 -0.212,-3.071 -0.363,-1.582 0,-2 2.067,-1.197 5.119,-0.881 8,-1 -0.208,-3.457 -1.423,-4.713 1,-7 1.453,-0.547 5.168,1.168 5,-1 z m 8,3 c -2.343,-1.843 -6.363,1.042 -11,0 -2.985,24.673 0.836,42.553 0,70 5.444,-1.217 9.143,0.29 13,-1 -0.935,-8.866 -3.472,-20.464 -1,-27 6.141,1.715 10.183,0 17,0 -0.979,8.338 2.077,19.426 4,28 4.166,0.166 8.346,0.346 10,-2 -7.775,-18.754 -4.426,-45.148 -8,-68 -2.333,0 -4.667,0 -7,0 -2.533,10.646 0.228,24.356 1,35 -5.199,0.489 -14.189,2.448 -19,0 1.457,-12.849 -1.917,-22.646 1,-35 z"
       transform="matrix(0.94861406,0,0,0.94861406,-261.75,-335.65)" />
    <path
       id="ID0.37984391022473574"
       fill="#ff9400"
       d="m 298,392 c 4.811,2.448 13.801,0.489 19,0 -0.772,-10.644 -3.533,-24.354 -1,-35 2.333,0 4.667,0 7,0 3.574,22.852 0.225,49.246 8,68 -1.654,2.346 -5.834,2.166 -10,2 -1.923,-8.574 -4.979,-19.662 -4,-28 -6.817,0 -10.859,1.715 -17,0 -2.472,6.536 0.065,18.134 1,27 -3.857,1.29 -7.556,-0.217 -13,1 0.836,-27.447 -2.985,-45.327 0,-70 4.637,1.042 8.657,-1.843 11,0 -2.917,12.354 0.457,22.151 -1,35 z"
       transform="matrix(0.94861406,0,0,0.94861406,-261.75,-335.65)" />
  </g>
</svg>

<svg version="1.1" width="57" height="80" xmlns="http://www.w3.org/2000/svg" xmlns:xlink="http://www.w3.org/1999/xlink">
  <!-- Exported by Scratch - http://scratch.mit.edu/ -->
  <g id="ID0.7614146037958562">
    <path id="ID0.7904601190239191" d="M 291 354 C 294.333 354 297.667 354 301 354 C 300.770 368.021 300.301 377.146 302 390 C 304.333 390 306.667 390 309 390 C 309 378.667 307.024 369.309 306 359 C 308.319 358.681 309.839 359.161 311 360 C 312.388 358.721 311.612 355.279 313 354 C 317.667 354 322.333 354 327 354 C 328.187 375.726 326.188 405.252 335 425 C 335 426 335 427 335 428 C 331.854 427.521 331.091 429.424 329 430 C 329.319 432.348 330.580 433.754 330 437 C 328.581 436.914 327.168 436.835 327 438 C 326.333 438 325.667 438 325 438 C 323.922 436.345 316.078 436.345 315 438 C 314.333 438 313.667 438 313 438 C 311.434 424.363 316.258 410.459 304 408 C 299.299 412.377 304.422 422.425 305 428 C 303.990 429.656 300.753 429.086 299 430 C 298.591 432.409 300.826 432.174 300 435 C 295.062 436.396 285.623 439.670 282 436 L 279.250 376 C 277.955 366.937 277.945 377.436 277 365 C 276.788 361.929 276.637 363.418 277 363 C 279.067 361.803 282.119 362.119 285 362 C 284.792 358.543 283.577 357.287 286 355 C 287.453 354.453 291.168 356.168 291 354 Z M 299 357 C 296.657 355.157 292.637 358.042 288 357 C 285.015 381.673 288.836 399.553 288 427 C 293.444 425.783 297.143 427.290 301 426 C 300.065 417.134 297.528 405.536 300 399 C 306.141 400.715 310.183 399 317 399 C 316.021 407.338 319.077 418.426 321 427 C 325.166 427.166 329.346 427.346 331 425 C 323.225 406.246 326.574 379.852 323 357 C 320.667 357 318.333 357 316 357 C 313.467 367.646 316.228 381.356 317 392 C 311.801 392.489 302.811 394.448 298 392 C 299.457 379.151 296.083 369.354 299 357 Z " transform="matrix(0.9486140608787537, 0, 0, 0.9486140608787537, -261.75, -335.65)"/>
    <path id="ID0.37984391022473574" fill="#FF9400" d="M 298 392 C 302.811 394.448 311.801 392.489 317 392 C 316.228 381.356 313.467 367.646 316 357 C 318.333 357 320.667 357 323 357 C 326.574 379.852 323.225 406.246 331 425 C 329.346 427.346 325.166 427.166 321 427 C 319.077 418.426 316.021 407.338 317 399 C 310.183 399 306.141 400.715 300 399 C 297.528 405.536 300.065 417.134 301 426 C 297.143 427.290 293.444 425.783 288 427 C 288.836 399.553 285.015 381.673 288 357 C 292.637 358.042 296.657 355.157 299 357 C 296.083 369.354 299.457 379.151 298 392 Z " transform="matrix(0.9486140608787537, 0, 0, 0.9486140608787537, -261.75, -335.65)"/>
  </g>
</svg>
